assets/icons/tumblr-active.svg

<svg width="24" height="24" viewBox="0 0 24 24" xmlns="http://www.w3.org/2000/svg">
  <g id="Styleguide" fill="none" fill-rule="evenodd">
    <g id="Base-Style---Icons" transform="translate(-620 -1836)">
      <g id="Tumblr-Active" transform="translate(607 1836)">
        <g id="Tumblr-Icon-Copy" transform="translate(13)">
          <path id="Rectangle-115" d="M0 0H24V24H0z"/>
          <path d="M13.9865358,20.9988348 C10.1971702,21.0661224 8.76061159,18.2046299 8.76061159,16.1919052 L8.76061159,10.309555 L7,10.309555 L7,7.98518261 C9.63920584,7.00065922 10.2747604,4.53817024 10.4230945,3.13457514 C10.4333638,3.03777548 10.5063898,3 10.5486079,3 L13.0976723,3 L13.0976723,7.58499864 L16.5778183,7.58499864 L16.5778183,10.309555 L13.0839799,10.309555 L13.0839799,15.9133111 C13.0965313,16.6759035 13.3658147,17.726534 14.7590141,17.687578 C15.2199909,17.6757732 15.839571,17.5364761 16.1624829,17.3771108 L17,19.9446628 C16.6850753,20.4215783 15.2656321,20.9752251 13.9865358,20.9988348" id="Tumblr-Icon" fill="#34465D"/>
        </g>
      </g>
    </g>
  </g>
</svg>

<svg width="24" height="24" viewBox="0 0 24 24" xmlns="http://www.w3.org/2000/svg">
  <g fill="none" fill-rule="evenodd">
    <path d="M0 0h24v24H0z"/>
    <path d="M13.987 20.999c-3.79.067-5.226-2.794-5.226-4.807V10.31H7V7.985c2.64-.984 3.275-3.447 3.423-4.85.01-.097.083-.135.126-.135h2.549v4.585h3.48v2.725h-3.494v5.603c.013.763.282 1.814 1.675 1.775.461-.012 1.08-.152 1.403-.31L17 19.944c-.315.477-1.734 1.03-3.013 1.054" fill="#34465D"/>
  </g>
</svg>
